source/img/sprite/social-vk.svg

<svg width="16" height="9" viewBox="0 0 16 9" fill="none" xmlns="http://www.w3.org/2000/svg">
<path d="M15.8574 8.02743C15.8144 7.95645 15.5484 7.38659 14.2683 6.21531C12.9282 4.98883 13.1082 5.18799 14.7223 3.06728C15.7054 1.77572 16.0984 0.986988 15.9754 0.649804C15.8584 0.328395 15.1353 0.413184 15.1353 0.413184L12.7312 0.426986C12.7312 0.426986 12.5531 0.403324 12.4201 0.481212C12.2911 0.558114 12.2081 0.735579 12.2081 0.735579C12.2081 0.735579 11.8271 1.7353 11.3191 2.58516C10.248 4.37855 9.81895 4.4732 9.64393 4.36179C9.2369 4.10249 9.33891 3.31869 9.33891 2.76263C9.33891 1.02445 9.60593 0.299803 8.81787 0.112478C8.55585 0.0503654 8.36384 0.00895679 7.69479 0.00205536C6.83672 -0.00681791 6.10967 0.00501311 5.69864 0.203183C5.42462 0.335296 5.21361 0.630086 5.34262 0.646846C5.50163 0.667551 5.86165 0.74248 6.05267 0.998819C6.29969 1.3291 6.29069 2.07248 6.29069 2.07248C6.29069 2.07248 6.4327 4.11827 5.95966 4.37263C5.63464 4.54714 5.1896 4.19122 4.23453 2.56347C3.7455 1.73037 3.37547 0.808537 3.37547 0.808537C3.37547 0.808537 3.30447 0.636987 3.17746 0.545297C3.02345 0.433888 2.80743 0.398395 2.80743 0.398395L0.521262 0.412198C0.521262 0.412198 0.178236 0.422057 0.0522271 0.568959C-0.0597811 0.700086 0.0432264 0.970227 0.0432264 0.970227C0.0432264 0.970227 1.83336 5.09827 3.85951 7.17954C5.71864 9.0873 7.8288 8.96208 7.8288 8.96208H8.78487C8.78487 8.96208 9.07389 8.93054 9.2209 8.77377C9.35691 8.62983 9.35191 8.35969 9.35191 8.35969C9.35191 8.35969 9.33291 7.09475 9.92895 6.90842C10.516 6.72503 11.2701 8.13095 12.0691 8.67222C12.6732 9.08138 13.1322 8.99166 13.1322 8.99166L15.2693 8.96208C15.2693 8.96208 16.3874 8.89406 15.8574 8.02743Z" fill="#2D383F"/>
</svg>

<svg width="16" height="9" fill="none" xmlns="http://www.w3.org/2000/svg"><path d="M15.86 8.03c-.05-.07-.31-.64-1.6-1.81-1.33-1.23-1.15-1.03.46-3.15.99-1.3 1.38-2.08 1.26-2.42-.12-.32-.84-.24-.84-.24l-2.4.02s-.19-.03-.32.05-.21.26-.21.26-.38 1-.9 1.85c-1.06 1.79-1.5 1.88-1.67 1.77-.4-.26-.3-1.04-.3-1.6 0-1.74.27-2.46-.52-2.65-.26-.06-.46-.1-1.13-.1-.85-.02-1.58 0-2 .2-.27.13-.48.42-.35.44.16.02.52.1.71.35.25.33.24 1.07.24 1.07s.14 2.05-.33 2.3c-.33.18-.77-.18-1.73-1.8C3.75 1.72 3.38.8 3.38.8S3.3.64 3.18.55C3.02.43 2.8.4 2.8.4L.52.4S.18.42.05.57c-.11.13 0 .4 0 .4S1.82 5.1 3.85 7.18c1.86 1.9 3.97 1.78 3.97 1.78h.95s.3-.03.44-.19c.14-.14.13-.41.13-.41s-.02-1.27.58-1.45c.59-.18 1.34 1.22 2.14 1.76.6.41 1.06.32 1.06.32l2.14-.03s1.12-.07.59-.93Z" fill="#2D383F"/></svg>
